X: 2319
T: SGIAN DUBH
R: Scotch Jig.
%R: jig
B: James Kerr "Merry Melodies" v.2 p.35 #319
Z: 2016 John Chambers <jc:trillian.mit.edu>
M: 6/8
L: 1/8
K: Bm
vD/uC/ |\
vB,2vB uB2uF | AFA ECA, | vB,2vB vB2uF | Bcd (c2B) |\
vB,2vB uB2uF | AFA ECA, | D3 E3 | FDB, B,2 vD/uC/ |\
vB,2vB uB2uF | AFA ECA, | vB,2vB uB2uF |
Bcd (c2B) |\
vB,2vB uB2uF | AFA ECA, | D3 E3 | FDB, B,2 |]\
ue |\
f2B- Bcd | cBA ecA | f2B- BcB | fge fdB |\
f2B- Bcd | cBA ecA |
def edc | fdB B2ue |\
f2B- Bcd | cBA ecA | f2B- BcB | fge fdB |\
faf eae | cea ecA | DEF EFG | FDB, B,2 |]

%%sep 1 1 500
%%sep 1 1 500

